X: 5
T: Dick Gossip's
Z: Sean Perry
S: https://thesession.org/tunes/408#setting50903
R: reel
M: 4/4
L: 1/8
K: Dmaj
|:AG|F2 AF GFED|F2 AF GFED|E^DEF GFE=D|^CDEF G2AG|
F2 AF GFED|F2 AF GFEA|B/c/d ef gece| dfec d2:|
|:ef|gB ~B2 gBaB|gB ~B2 gfed|c/B/A eA fAed|cdef gfef|
gB ~B2 gBaB|gB ~B2 gfed|cdef gece| dfec d2 :|

